src/components/Icon/svg-icon/main/list-alt.svg

<svg xmlns="http://www.w3.org/2000/svg" width="24" height="24"><path fill="#677078" d="M19 5v14H5V5h14zm1.1-2H3.9c-.5 0-.9.4-.9.9v16.2c0 .4.4.9.9.9h16.2c.4 0 .9-.5.9-.9V3.9c0-.5-.5-.9-.9-.9zM11 7h6v2h-6V7zm0 4h6v2h-6v-2zm0 4h6v2h-6v-2zM7 7h2v2H7V7zm0 4h2v2H7v-2zm0 4h2v2H7v-2z"/></svg>

<svg xmlns="http://www.w3.org/2000/svg" width="24" height="24" viewBox="0 0 24 24">
  <path fill="#677078" d="M19,5 L19,19 L5,19 L5,5 L19,5 L19,5 Z M20.1,3 L3.9,3 C3.4,3 3,3.4 3,3.9 L3,20.1 C3,20.5 3.4,21 3.9,21 L20.1,21 C20.5,21 21,20.5 21,20.1 L21,3.9 C21,3.4 20.5,3 20.1,3 L20.1,3 Z M11,7 L17,7 L17,9 L11,9 L11,7 Z M11,11 L17,11 L17,13 L11,13 L11,11 Z M11,15 L17,15 L17,17 L11,17 L11,15 Z M7,7 L9,7 L9,9 L7,9 L7,7 Z M7,11 L9,11 L9,13 L7,13 L7,11 Z M7,15 L9,15 L9,17 L7,17 L7,15 Z"/>
</svg>
